!!!Genre:	Freylekhs (fun der khupe)
!!!Mode:	Altered Dorian
!!!Listening/dance:	listening
!!!One_Mode:	no
**kern
*clefG2
*k[b-]
*g:dor
*M2/4
*>A
24ddLL
24ee
24ddJJ
=1
8cc#L
8ddJ
8eeL
8ddJ
=2
(8cc#L
8b-J)
(8aL
8gJ)
=3
(16cc#LL
16eeJJ
[4.dd)
=4
4dd]
8r
8g
=5
8ggL
8ffJ
8eeL
8ddJ
=6
(8.cc#XL
16b-Jk)
(16cc#LL
16b-
16a
16gJJ)
=7
(16cc#LL
16eeJJ
[4.dd)
=8
4dd_
16ddLL]
16dd
16ee
16ddJJ
=9
(16cc#LL
16dd
16ee
16ddJJ)
(16cc#LL
16dd
16ee
16ddJJ)
=10
(16cc#LL
16dd
16ee
16ddJJ
16cc#LL
16b-
16a
16gJJ)
=11
4.ccn
8dd
=12
2ee-X
=13
8ddL
8cc#XJ
16ddLL
16cc#J
8b-J
=14
16ddLL
16cc#J
8b-J
16b-LL
16aJ
8gJ
=15
2g
=16
4g
4r
*>bM
*-
